assets/Line.svg

<svg width="6.161" height="11.329" fill="none" xmlns="http://www.w3.org/2000/svg"><path d="m.24 10.83.13.15c.4.46 1.11.46 1.51 0l4.03-4.67c.33-.37.33-.93 0-1.3L1.88.34a.999.999 0 0 0-1.51 0L.24.49a.99.99 0 0 0 0 1.31l3.33 3.86L.24 9.52a.99.99 0 0 0 0 1.31Z" fill="#FF3E79" fill-rule="evenodd"/></svg>

<svg width="6.161133" height="11.329346" viewBox="0 0 6.16113 11.3293" fill="none" xmlns="http://www.w3.org/2000/svg" xmlns:xlink="http://www.w3.org/1999/xlink">
	<desc>
			Created with Pixso.
	</desc>
	<defs/>
	<path id="Line" d="M0.24 10.83L0.37 10.98C0.77 11.44 1.48 11.44 1.88 10.98L5.91 6.31C6.24 5.94 6.24 5.38 5.91 5.01L1.88 0.34C1.48 -0.12 0.77 -0.12 0.37 0.34L0.24 0.49C-0.09 0.87 -0.09 1.43 0.24 1.8L3.57 5.66L0.24 9.52C-0.09 9.89 -0.09 10.45 0.24 10.83Z" fill="#FF3E79" fill-opacity="1.000000" fill-rule="evenodd"/>
</svg>
